setcps (90/60/4)

d1 $ s "sax"
# att ".0001"
# hold "1"
# rel "0.001"

d1 $ s "sax*4"
# cut 1
# vowel "<a e i o u>"

d2 $ sound "sd*4"

d3 $ n "[0 1 2 3]*4" # s "techno"
# coarse 16
# crush 16

d1 $ n "[1]*8" # s "techno"
# fshift "<2 -2 2 -1>*2"
# fshiftnote "<1 -2 1 -1>*2"

d2 $ s "toys:2"
# amp "0.2"
# fshift "<2 4 2 6>"
# fshiftnote "<1 1 1 1>"
# cut 1

d4 $ every 4 rev $ n "[c d ef f g af bf]/2" # s "superpiano"

d4 $ every 4 rev $ n "[c c d d f g af bf]/2" # s "superpiano"
# coarse 16
# crush 16
# dry "0.9"
# room "0.2"
# size "0.2"


d2 $ every 2 (const $ s "[bd sd bd [sd sd]*1]" # coarse 16
# crush 16)
$ s "[bd sd] * 2"
# coarse 16
# crush 16

d1 $ s "sn*8"
# lpf "100" -- Cuts high frequencies and lets low frequencies pass
# lpq ".1"

d3 $ s "[xmas]/4"
# amp "0.1"
# coarse 16
# crush 16
# fshift "<2 4 2 6>"
# fshiftnote "<1 1 1 1>"

d2 $ s "sn*4"
# hpf "4000" -- Cuts low frequencies and lets low frequencies pass

d2 $ s "sn sn sn sn"
# bpf "[400, 800, 1600, 4000]"

d1 $ s "moog*4"
# cut 1
# fshift "<1 2 1 3>"
# fshiftnote "<1 2 1 2>"

# lpf 600
# ring 50
# ringf "400"
# ringdf "-4000" -- positive number slides up negative number slides down

d1 $ s "hh(3,8)" -- euclidean sequences 3 notes into 8 slots


d1 silence

d2 silence

d3 silence

hush
