setcps (60/60)

d1 $ s "sax"
# att ".0001"
# hold "1"
# rel "0.001"

d1 $ s "sax*32"
# cut 1
# vowel "<a e i o u>*2"

d2 $ sound "sd*4"

d2 $ sound "[bd sd] * 2"
# coarse 16
# crush 16

d1 $ s "sn*16"
# lpf "100" -- Cuts high frequencies and lets low frequencies pass
# lpq ".1"

d2 $ s "sn*4"
# hpf "4000" -- Cuts low frequencies and lets low frequencies pass

d2 $ s "sn sn sn sn"
# bpf "[400, 800, 1600, 4000]"

d1 $ s "moog*2"
# cut 1
# lpf 600
# ring 50
# ringf "400"
# ringdf "-4000" -- positive number slides up negative number slides down

d1 $ s "hh(3,8)" -- euclidean sequences 3 notes into 8 slots


d1 silence

d2 silence

d3 silence

hush
